icons/building-4-line.svg

<svg xmlns="http://www.w3.org/2000/svg" width="24" height="24" fill="none"><g clip-path="url(#a)"><g><path fill="#121212" d="M21 20H23V22H1V20H3V3C3 2.73478 3.10536 2.48043 3.29289 2.29289C3.48043 2.10536 3.73478 2 4 2H20C20.2652 2 20.5196 2.10536 20.7071 2.29289C20.8946 2.48043 21 2.73478 21 3V20ZM19 20V4H5V20H19ZM8 11H11V13H8V11ZM8 7H11V9H8V7ZM8 15H11V17H8V15ZM13 15H16V17H13V15ZM13 11H16V13H13V11ZM13 7H16V9H13V7Z"/></g></g><defs><clipPath id="a"><rect width="24" height="24" fill="white"/></clipPath></defs></svg>

<svg width="24" height="24" fill="none" xmlns="http://www.w3.org/2000/svg"><g clip-path="url(#a)"><path d="M21 20h2v2H1v-2h2V3a1 1 0 0 1 1-1h16a1 1 0 0 1 1 1v17Zm-2 0V4H5v16h14ZM8 11h3v2H8v-2Zm0-4h3v2H8V7Zm0 8h3v2H8v-2Zm5 0h3v2h-3v-2Zm0-4h3v2h-3v-2Zm0-4h3v2h-3V7Z" /></g><defs><clipPath id="a"><path fill="#fff" d="M0 0h24v24H0z"/></clipPath></defs></svg>
